X: 1
T: Polska i G
R: Bingsj\"o-polska
O: efter Bj\"orn St\aabi & Ole Hjorth
Z: John Chambers <jc@trillian.mit.edu>
M: 3/4
L: 1/16
K: G
|: {G,DB}g2(3agf g2b2 abag | fgfe dedc BcBA \
| G2AB {cB}c2ec ~B2AB | cBAF G2B2 A2[D2-G,2-] |
| [D2G,2] (3agf g2b2 abag | fgfe dedc BcBA \
| G2AB {cB}c2ec ~B2AB | cBAG F2G2 G4 :|
|: BcBA G2c2 efed | cdcB AFAB ~c4 \
| cdcB A2Ad f2fa |1,3 gfed gfed cBAG :|2,4 gfed {G,D}[g8B8] :|
